X: 15
T: Kylebrack Rambler, The
C: Finbarr Dwyer
Z: ceili
S: https://thesession.org/tunes/361#setting49376
R: reel
M: 4/4
L: 1/8
K: Dmix
|:DA, A,/A,/A, DA,=FA,|DA, A,/A,/A, CA,=G,A,|DA, A,/A,/A, DA,DE|FGAF GEFG|
Adde dcAB|cGAc GECE|DCA,G, A,D D/D/D|1 FAGE D2DE:|2 FAGE DEFG||
|:A3G FD D/D/D|d3c AGAB|c/c/c Gc EcGc|cded cAGA|
d2 fd dA A/A/A|cA A/A/A EA A/A/A|GE E/E/E CDEG|cAGE D2FG:|
|:AD D/D/D A,D D/D/D|dA A/A/A dcAB|c2Bd cAGE|CcBd cAGE|
FD D/D/D A,D D/D/D|dA A/A/A dcAB|c2Bd cAGE|1 CEGE DEFG:|2 CEGE D4||

